X: 29151
T: Never Love Thee More
R: jig
M: 6/8
K: Gmajor
D|D2D G2A|B2BD2D|B2B A2G|E3 E2D|D2D G2A|
B2B D2D|B2B A2G|d3d2||d|B2B A2G|c2d e2d|
d2B A2G|E3 E2D|D2D G2A|Bcd e2d|d2B A2G|G3 G2||

